X: 9378
T: Dancing The Baby
R: barndance
M: 4/4
K: Dmajor
|:FA/A/ GA/A/ FA/A/ G/F/E|FA/A/ GA/A/ DD/E/ F/E/D|
FA/A/ GA/A/ FA/A/ G/F/E|DD/F/ E3F D2 D2:|
|:dF/F/ AF/F/ dF/F/ G/F/E|dF/F/ AF/F/ DD/E/ F/E/D|
dF/F/ AF/F/ dF/F/ G/F/E|DD/F/ E3F D2 D2:|
|:fa/a/ ga/a/ fa/a/ g/f/e|fa/a/ ga/a/ dd/e/ f/e/d|
fa/a/ ga/a/ fa/a/ g/f/e|dd/f/ e3f d2 d2:|

